X: 59
T: Wuge fangyang
%%abc-version 2.0
%%abcx-abcm2ps-target-version 5.9.1 (29 Sep 2008)
%%abc-creator hum2abc beta
%%abcx-conversion-date 2013/10/02 07:52:29
%%abc-edited-by Helmut Schaffrath
%%humdrum-veritas 1296329326
%%humdrum-veritas-data 1431982803
%%continueall 1
%%barnumbers 0
L: 1/16
M: 2/4
K: Eb
B2 B B2< e2 f [I:setbarnb 1]| 
e2> d2 c2 B2 | 
F4B2 B2 | 
e2 B cB4 | 
G2 F EB,4 | 
G2 G2 F2 G F | 
E2 F2B4 | 
e2 c e c2 B c | 
B4G2 F E | 
B,8 | 
B2 B2 e3 f | 
e2 c e c2 B c | 
B4G2 F E | 
B,8 | 
B2 B2 e3 f | 
e2 c e c2 B c | 
B4G2 F E | 
B,8 |]  



